logos/stanford_huberman_lab.svg

<?xml version="1.0" encoding="UTF-8"?>
<!DOCTYPE svg PUBLIC "-//W3C//DTD SVG 1.1//EN" "http://www.w3.org/Graphics/SVG/1.1/DTD/svg11.dtd">
<svg xmlns="http://www.w3.org/2000/svg" version="1.1" width="366px" height="80px" style="shape-rendering:geometricPrecision; text-rendering:geometricPrecision; image-rendering:optimizeQuality; fill-rule:evenodd; clip-rule:evenodd" xmlns:xlink="http://www.w3.org/1999/xlink">
<g><path style="opacity:0.916" fill="#00adee" d="M -0.5,0.5 C 121.5,0.5 243.5,0.5 365.5,0.5C 365.5,1.5 365.5,2.5 365.5,3.5C 243.5,3.5 121.5,3.5 -0.5,3.5C -0.5,2.5 -0.5,1.5 -0.5,0.5 Z"/></g>
<g><path style="opacity:0.836" fill="#00a8e9" d="M -0.5,3.5 C 121.5,3.5 243.5,3.5 365.5,3.5C 365.5,18.8333 365.5,34.1667 365.5,49.5C 363.533,49.2606 361.699,49.5939 360,50.5C 359.826,45.6486 359.326,40.9819 358.5,36.5C 358.5,26.8333 358.5,17.1667 358.5,7.5C 241.167,7.5 123.833,7.5 6.5,7.5C 6.5,14.5 6.5,21.5 6.5,28.5C 5.67098,35.989 5.17098,43.6557 5,51.5C 3.59928,49.8078 1.76595,49.1412 -0.5,49.5C -0.5,34.1667 -0.5,18.8333 -0.5,3.5 Z M 331.5,28.5 C 335.487,28.6518 336.987,30.6518 336,34.5C 334.915,35.2931 333.748,35.9598 332.5,36.5C 331.52,33.9135 331.187,31.2469 331.5,28.5 Z M 143.5,28.5 C 146.272,28.6273 147.605,30.1273 147.5,33C 147.455,35.2198 146.455,36.7198 144.5,37.5C 143.516,34.5719 143.183,31.5719 143.5,28.5 Z M 305.5,34.5 C 306.531,36.9608 307.198,39.6275 307.5,42.5C 306.325,42.719 305.325,42.3857 304.5,41.5C 305.374,39.2534 305.708,36.9201 305.5,34.5 Z M 86.5,28.5 C 92.8326,30.8221 92.9993,33.4888 87,36.5C 86.5026,33.854 86.3359,31.1873 86.5,28.5 Z M 331.5,41.5 C 334.93,40.7553 336.597,42.0886 336.5,45.5C 336.597,48.9114 334.93,50.2447 331.5,49.5C 331.5,46.8333 331.5,44.1667 331.5,41.5 Z M 86.5,41.5 C 89.9304,40.7553 91.597,42.0886 91.5,45.5C 91.597,48.9114 89.9304,50.2447 86.5,49.5C 86.5,46.8333 86.5,44.1667 86.5,41.5 Z M 206.5,36.5 C 208.616,38.0881 208.949,40.0881 207.5,42.5C 206.534,40.604 206.201,38.604 206.5,36.5 Z"/></g>
<g><path style="opacity:0.887" fill="#0099da" d="M 165.5,23.5 C 168.448,23.2229 171.281,23.5562 174,24.5C 174.872,29.1947 175.872,33.8614 177,38.5C 178,33.8333 179,29.1667 180,24.5C 182.719,23.5562 185.552,23.2229 188.5,23.5C 188.666,33.8387 188.5,44.172 188,54.5C 186.301,55.4061 184.467,55.7394 182.5,55.5C 182.666,49.8236 182.499,44.1569 182,38.5C 178.453,61.0927 175.12,61.0927 172,38.5C 171.501,44.1569 171.334,49.8236 171.5,55.5C 169.533,55.7394 167.699,55.4061 166,54.5C 165.5,44.172 165.334,33.8387 165.5,23.5 Z"/></g>
<g><path style="opacity:0.938" fill="#0099da" d="M 227.5,23.5 C 229.5,23.5 231.5,23.5 233.5,23.5C 234.698,28.2381 236.198,32.9048 238,37.5C 238.499,32.8452 238.666,28.1785 238.5,23.5C 240.5,23.5 242.5,23.5 244.5,23.5C 244.5,34.1667 244.5,44.8333 244.5,55.5C 242.396,55.7989 240.396,55.4656 238.5,54.5C 236.765,49.4616 234.932,44.4616 233,39.5C 232.501,44.8229 232.334,50.1563 232.5,55.5C 230.833,55.5 229.167,55.5 227.5,55.5C 227.5,44.8333 227.5,34.1667 227.5,23.5 Z"/></g>
<g><path style="opacity:0.956" fill="#0098d9" d="M 109.5,23.5 C 114.5,23.5 119.5,23.5 124.5,23.5C 124.5,25.5 124.5,27.5 124.5,29.5C 121.833,29.5 119.167,29.5 116.5,29.5C 116.5,31.5 116.5,33.5 116.5,35.5C 118.5,35.5 120.5,35.5 122.5,35.5C 122.5,37.5 122.5,39.5 122.5,41.5C 120.5,41.5 118.5,41.5 116.5,41.5C 116.5,44.1667 116.5,46.8333 116.5,49.5C 119.5,49.5 122.5,49.5 125.5,49.5C 125.5,51.5 125.5,53.5 125.5,55.5C 120.238,55.8047 115.072,55.4714 110,54.5C 109.5,44.172 109.334,33.8387 109.5,23.5 Z"/></g>
<g><path style="opacity:0.844" fill="#0198d9" d="M 325.5,23.5 C 329.514,23.3345 333.514,23.5012 337.5,24C 342.881,27.7889 343.881,32.6222 340.5,38.5C 344.703,43.9767 344.37,49.1434 339.5,54C 334.934,55.3092 330.267,55.8092 325.5,55.5C 325.5,44.8333 325.5,34.1667 325.5,23.5 Z M 331.5,28.5 C 331.187,31.2469 331.52,33.9135 332.5,36.5C 333.748,35.9598 334.915,35.2931 336,34.5C 336.987,30.6518 335.487,28.6518 331.5,28.5 Z M 331.5,41.5 C 331.5,44.1667 331.5,46.8333 331.5,49.5C 334.93,50.2447 336.597,48.9114 336.5,45.5C 336.597,42.0886 334.93,40.7553 331.5,41.5 Z"/></g>
<g><path style="opacity:0.923" fill="#0097d8" d="M 21.5,23.5 C 23.8333,23.5 26.1667,23.5 28.5,23.5C 28.5,27.5 28.5,31.5 28.5,35.5C 29.8333,35.5 31.1667,35.5 32.5,35.5C 32.5,31.5 32.5,27.5 32.5,23.5C 34.5,23.5 36.5,23.5 38.5,23.5C 38.5,34.1667 38.5,44.8333 38.5,55.5C 36.5,55.5 34.5,55.5 32.5,55.5C 32.5,50.8333 32.5,46.1667 32.5,41.5C 31.1667,41.5 29.8333,41.5 28.5,41.5C 28.6657,45.8461 28.499,50.1794 28,54.5C 26,55.8333 24,55.8333 22,54.5C 21.5002,44.172 21.3335,33.8387 21.5,23.5 Z"/></g>
<g><path style="opacity:0.933" fill="#0198da" d="M 136.5,23.5 C 141.866,23.042 147.033,23.7086 152,25.5C 154.406,31.2113 153.906,36.5446 150.5,41.5C 152.449,46.0104 153.782,50.6771 154.5,55.5C 152.396,55.7989 150.396,55.4656 148.5,54.5C 147.299,50.3454 145.799,46.3454 144,42.5C 143.667,46.5 143.333,50.5 143,54.5C 141,55.8333 139,55.8333 137,54.5C 136.5,44.172 136.334,33.8387 136.5,23.5 Z M 143.5,28.5 C 143.183,31.5719 143.516,34.5719 144.5,37.5C 146.455,36.7198 147.455,35.2198 147.5,33C 147.605,30.1273 146.272,28.6273 143.5,28.5 Z"/></g>
<g><path style="opacity:0.841" fill="#0196d6" d="M 273.5,23.5 C 275.833,23.5 278.167,23.5 280.5,23.5C 280.5,32.1667 280.5,40.8333 280.5,49.5C 283.167,49.5 285.833,49.5 288.5,49.5C 288.5,51.5 288.5,53.5 288.5,55.5C 283.57,55.8025 278.737,55.4692 274,54.5C 273.5,44.172 273.334,33.8387 273.5,23.5 Z"/></g>
<g><path style="opacity:0.898" fill="#0197d7" d="M 302.5,23.5 C 305.119,23.2317 307.619,23.565 310,24.5C 312.029,34.8104 313.862,45.1437 315.5,55.5C 313.5,55.5 311.5,55.5 309.5,55.5C 309.007,53.1944 308.674,50.861 308.5,48.5C 306.833,48.5 305.167,48.5 303.5,48.5C 304.786,54.8848 302.453,56.8848 296.5,54.5C 298.501,44.1614 300.501,33.828 302.5,23.5 Z M 305.5,34.5 C 305.708,36.9201 305.374,39.2534 304.5,41.5C 305.325,42.3857 306.325,42.719 307.5,42.5C 307.198,39.6275 306.531,36.9608 305.5,34.5 Z"/></g>
<g><path style="opacity:0.881" fill="#0396d7" d="M 203.5,23.5 C 206.167,23.5 208.833,23.5 211.5,23.5C 213.167,34.168 214.834,44.8347 216.5,55.5C 214.5,55.5 212.5,55.5 210.5,55.5C 211.092,52.3595 210.092,50.0261 207.5,48.5C 206.558,48.6082 205.725,48.9415 205,49.5C 204.505,51.4727 204.338,53.4727 204.5,55.5C 202.5,55.5 200.5,55.5 198.5,55.5C 199.908,44.7936 201.575,34.1269 203.5,23.5 Z M 206.5,36.5 C 206.201,38.604 206.534,40.604 207.5,42.5C 208.949,40.0881 208.616,38.0881 206.5,36.5 Z"/></g>
<g><path style="opacity:0.934" fill="#0197d7" d="M 51.5,23.5 C 53.5,23.5 55.5,23.5 57.5,23.5C 57.5,32.1667 57.5,40.8333 57.5,49.5C 58.8333,49.5 60.1667,49.5 61.5,49.5C 61.5,40.8333 61.5,32.1667 61.5,23.5C 63.8333,23.5 66.1667,23.5 68.5,23.5C 68.8909,33.233 68.3909,42.8997 67,52.5C 61.7186,56.699 56.7186,56.3657 52,51.5C 51.5002,42.1726 51.3335,32.8393 51.5,23.5 Z"/></g>
<g><path style="opacity:0.93" fill="#0197d8" d="M 80.5,23.5 C 84.5138,23.3345 88.5138,23.5012 92.5,24C 97.9362,27.754 98.9362,32.5873 95.5,38.5C 100.31,52.3706 95.3098,58.0373 80.5,55.5C 80.5,44.8333 80.5,34.1667 80.5,23.5 Z M 86.5,28.5 C 86.3359,31.1873 86.5026,33.854 87,36.5C 92.9993,33.4888 92.8326,30.8221 86.5,28.5 Z M 86.5,41.5 C 86.5,44.1667 86.5,46.8333 86.5,49.5C 89.9304,50.2447 91.597,48.9114 91.5,45.5C 91.597,42.0886 89.9304,40.7553 86.5,41.5 Z"/></g>
<g><path style="opacity:0.999" fill="#1a87c9" d="M 6.5,28.5 C 6.5,42.8333 6.5,57.1667 6.5,71.5C 123.833,71.5 241.167,71.5 358.5,71.5C 358.5,59.8333 358.5,48.1667 358.5,36.5C 359.326,40.9819 359.826,45.6486 360,50.5C 361.699,49.5939 363.533,49.2606 365.5,49.5C 365.5,58.1667 365.5,66.8333 365.5,75.5C 243.5,75.5 121.5,75.5 -0.5,75.5C -0.5,66.8333 -0.5,58.1667 -0.5,49.5C 1.76595,49.1412 3.59928,49.8078 5,51.5C 5.17098,43.6557 5.67098,35.989 6.5,28.5 Z M 331.5,41.5 C 331.5,44.1667 331.5,46.8333 331.5,49.5C 334.93,50.2447 336.597,48.9114 336.5,45.5C 336.597,42.0886 334.93,40.7553 331.5,41.5 Z M 86.5,41.5 C 86.5,44.1667 86.5,46.8333 86.5,49.5C 89.9304,50.2447 91.597,48.9114 91.5,45.5C 91.597,42.0886 89.9304,40.7553 86.5,41.5 Z M 206.5,36.5 C 206.201,38.604 206.534,40.604 207.5,42.5C 208.949,40.0881 208.616,38.0881 206.5,36.5 Z"/></g>
<g><path style="opacity:0.916" fill="#2184c7" d="M -0.5,75.5 C 121.5,75.5 243.5,75.5 365.5,75.5C 365.5,76.5 365.5,77.5 365.5,78.5C 243.5,78.5 121.5,78.5 -0.5,78.5C -0.5,77.5 -0.5,76.5 -0.5,75.5 Z"/></g>
</svg>

<svg xmlns="http://www.w3.org/2000/svg" width="366" height="80" style="shape-rendering:geometricPrecision;text-rendering:geometricPrecision;image-rendering:optimizeQuality;fill-rule:evenodd;clip-rule:evenodd"><path style="opacity:.916" fill="#00adee" d="M-.5.5h366v3H-.5v-3z"/><path style="opacity:.836" fill="#00a8e9" d="M-.5 3.5h366v46c-1.967-.24-3.801.094-5.5 1-.174-4.851-.674-9.518-1.5-14v-29H6.5v21a260.606 260.606 0 0 0-1.5 23c-1.4-1.692-3.234-2.359-5.5-2v-46zm332 25c3.987.152 5.487 2.152 4.5 6a18.085 18.085 0 0 1-3.5 2 16.874 16.874 0 0 1-1-8zm-188 0c2.772.127 4.105 1.627 4 4.5-.045 2.22-1.045 3.72-3 4.5a21.128 21.128 0 0 1-1-9zm162 6c1.031 2.46 1.698 5.127 2 8-1.175.219-2.175-.114-3-1a15.417 15.417 0 0 0 1-7zm-219-6c6.333 2.322 6.5 4.989.5 8a32.437 32.437 0 0 1-.5-8zm245 13c3.43-.745 5.097.589 5 4 .097 3.411-1.57 4.745-5 4v-8zm-245 0c3.43-.745 5.097.589 5 4 .097 3.411-1.57 4.745-5 4v-8zm120-5c2.116 1.588 2.449 3.588 1 6a9.86 9.86 0 0 1-1-6z"/><path style="opacity:.887" fill="#0099da" d="M165.5 23.5c2.948-.277 5.781.056 8.5 1a260.792 260.792 0 0 0 3 14l3-14c2.719-.944 5.552-1.277 8.5-1 .166 10.339 0 20.672-.5 31-1.699.906-3.533 1.24-5.5 1a145.05 145.05 0 0 0-.5-17c-3.547 22.593-6.88 22.593-10 0a145.05 145.05 0 0 0-.5 17c-1.967.24-3.801-.094-5.5-1a481.169 481.169 0 0 1-.5-31z"/><path style="opacity:.938" fill="#0099da" d="M227.5 23.5h6a116.613 116.613 0 0 0 4.5 14c.499-4.655.666-9.322.5-14h6v32a9.864 9.864 0 0 1-6-1 402.52 402.52 0 0 0-5.5-15 128.508 128.508 0 0 0-.5 16h-5v-32z"/><path style="opacity:.956" fill="#0098d9" d="M109.5 23.5h15v6h-8v6h6v6h-6v8h9v6a62.787 62.787 0 0 1-15.5-1 481.169 481.169 0 0 1-.5-31z"/><path style="opacity:.844" fill="#0198d9" d="M325.5 23.5a72.442 72.442 0 0 1 12 .5c5.381 3.789 6.381 8.622 3 14.5 4.203 5.477 3.87 10.643-1 15.5a40.833 40.833 0 0 1-14 1.5v-32zm6 5a16.874 16.874 0 0 0 1 8 18.085 18.085 0 0 0 3.5-2c.987-3.848-.513-5.848-4.5-6zm0 13v8c3.43.745 5.097-.589 5-4 .097-3.411-1.57-4.745-5-4z"/><path style="opacity:.923" fill="#0097d8" d="M21.5 23.5h7v12h4v-12h6v32h-6v-14h-4a84.938 84.938 0 0 1-.5 13c-2 1.333-4 1.333-6 0a480.952 480.952 0 0 1-.5-31z"/><path style="opacity:.933" fill="#0198da" d="M136.5 23.5c5.366-.458 10.533.209 15.5 2 2.406 5.711 1.906 11.045-1.5 16a55.903 55.903 0 0 1 4 14 9.864 9.864 0 0 1-6-1 82.024 82.024 0 0 0-4.5-12l-1 12c-2 1.333-4 1.333-6 0a481.169 481.169 0 0 1-.5-31zm7 5a21.128 21.128 0 0 0 1 9c1.955-.78 2.955-2.28 3-4.5.105-2.873-1.228-4.373-4-4.5z"/><path style="opacity:.841" fill="#0196d6" d="M273.5 23.5h7v26h8v6c-4.93.303-9.763-.03-14.5-1a481.169 481.169 0 0 1-.5-31z"/><path style="opacity:.898" fill="#0197d7" d="M302.5 23.5c2.619-.268 5.119.065 7.5 1a840.815 840.815 0 0 1 5.5 31h-6a51.56 51.56 0 0 1-1-7h-5c1.286 6.385-1.047 8.385-7 6l6-31zm3 11a15.417 15.417 0 0 1-1 7c.825.886 1.825 1.219 3 1-.302-2.873-.969-5.54-2-8z"/><path style="opacity:.881" fill="#0396d7" d="M203.5 23.5h8l5 32h-6c.592-3.14-.408-5.474-3-7a4.94 4.94 0 0 0-2.5 1 18.452 18.452 0 0 0-.5 6h-6a668.58 668.58 0 0 1 5-32zm3 13a9.86 9.86 0 0 0 1 6c1.449-2.412 1.116-4.412-1-6z"/><path style="opacity:.934" fill="#0197d7" d="M51.5 23.5h6v26h4v-26h7c.39 9.733-.11 19.4-1.5 29-5.281 4.199-10.281 3.866-15-1-.5-9.327-.666-18.66-.5-28z"/><path style="opacity:.93" fill="#0197d8" d="M80.5 23.5a72.444 72.444 0 0 1 12 .5c5.436 3.754 6.436 8.587 3 14.5 4.81 13.87-.19 19.537-15 17v-32zm6 5a32.437 32.437 0 0 0 .5 8c6-3.011 5.833-5.678-.5-8zm0 13v8c3.43.745 5.097-.589 5-4 .097-3.411-1.57-4.745-5-4z"/><path style="opacity:.999" fill="#1a87c9" d="M6.5 28.5v43h352v-35c.826 4.482 1.326 9.149 1.5 14 1.699-.906 3.533-1.24 5.5-1v26H-.5v-26c2.266-.359 4.1.308 5.5 2 .171-7.844.671-15.511 1.5-23zm325 13v8c3.43.745 5.097-.589 5-4 .097-3.411-1.57-4.745-5-4zm-245 0v8c3.43.745 5.097-.589 5-4 .097-3.411-1.57-4.745-5-4zm120-5a9.86 9.86 0 0 0 1 6c1.449-2.412 1.116-4.412-1-6z"/><path style="opacity:.916" fill="#2184c7" d="M-.5 75.5h366v3H-.5v-3z"/></svg>
